modules/hawcons-stroke/icons/icon-10-mail-cancel.svg

<?xml version="1.0" encoding="UTF-8" standalone="no"?>
<svg width="32px" height="32px" viewBox="0 0 32 32" version="1.1" xmlns="http://www.w3.org/2000/svg" xmlns:xlink="http://www.w3.org/1999/xlink" xmlns:sketch="http://www.bohemiancoding.com/sketch/ns">
    <!-- Generator: Sketch 3.0.3 (7891) - http://www.bohemiancoding.com/sketch -->
    <title>icon 10 mail cancel</title>
    <desc>Created with Sketch.</desc>
    <defs></defs>
    <g id="Page-1" stroke="none" stroke-width="1" fill="none" fill-rule="evenodd" sketch:type="MSPage">
        <g id="icon-10-mail-cancel" sketch:type="MSArtboardGroup" fill="#929292">
            <path d="M25.5,21.2071068 L23.3786797,23.3284271 L22.6715729,22.6213203 L24.7928932,20.5 L22.6715729,18.3786797 L23.3786797,17.6715729 L25.5,19.7928932 L27.6213203,17.6715729 L28.3284271,18.3786797 L26.2071068,20.5 L28.3284271,22.6213203 L27.6213203,23.3284271 L25.5,21.2071068 L25.5,21.2071068 L25.5,21.2071068 Z M26,15.0224215 L26,9.00684547 C26,8.71711185 25.8808404,8.45596162 25.6868931,8.27226685 L25.6868931,8.27226685 L17.95,15 L20.8662664,17.5358838 C21.8439076,16.0107287 23.5539196,15 25.5,15 C25.6685448,15 25.835319,15.0075813 26,15.0224215 L26,15.0224215 L26,15.0224215 Z M20.4011965,18.434036 L17.2018297,15.6505829 L17.2018297,15.6505829 L14.5,18 L11.7981703,15.6505829 L4.5,22 L20.2070325,22 C20.0721672,21.5231682 20,21.0200119 20,20.5 C20,19.7693084 20.142489,19.071897 20.4011965,18.434036 L20.4011965,18.434036 L20.4011965,18.434036 Z M20.5997073,23 L4.00359486,23 C2.88976324,23 2,22.1072288 2,21.0059397 L2,8.99406028 C2,7.89451376 2.89703997,7 4.00359486,7 L24.9964051,7 C26.1102368,7 27,7.8927712 27,8.99406028 L27,15.2070325 C29.3085049,15.8599613 31,17.9824456 31,20.5 C31,23.5375663 28.5375663,26 25.5,26 C23.3626574,26 21.5100654,24.7808383 20.5997098,23.0000006 L20.5997073,23 L20.5997073,23 Z M3.31500722,8.27391933 C3.12106043,8.45739405 3,8.71770487 3,9.00684547 L3,20.9931545 C3,21.2828882 3.11915965,21.5440384 3.31310687,21.7277332 L3.31310687,21.7277332 L11.05,15 L3.31500722,8.27391933 L3.31500722,8.27391933 L3.31500722,8.27391933 Z M14.5,16.7000122 L24.5,8 L4.5,8 L14.5,16.7000122 L14.5,16.7000122 Z M25.5,25 C27.9852815,25 30,22.9852815 30,20.5 C30,18.0147185 27.9852815,16 25.5,16 C23.0147185,16 21,18.0147185 21,20.5 C21,22.9852815 23.0147185,25 25.5,25 L25.5,25 L25.5,25 Z" id="mail-cancel" sketch:type="MSShapeGroup"></path>
        </g>
    </g>
</svg>

<svg width="32" height="32" viewBox="0 0 32 32" xmlns="http://www.w3.org/2000/svg"><path d="M25.5 21.207l-2.121 2.121-.707-.707 2.12-2.121-2.12-2.121.707-.707 2.121 2.12 2.121-2.12.707.707-2.12 2.121 2.12 2.121-.707.707-2.121-2.12zm.5-6.185V9.007c0-.29-.12-.551-.313-.735L17.95 15l2.916 2.536A5.496 5.496 0 0 1 26 15.022zm-5.599 3.412l-3.2-2.783L14.5 18l-2.702-2.35L4.5 22h15.707A5.504 5.504 0 0 1 20 20.5c0-.73.142-1.428.401-2.066zM20.6 23H4.004A1.994 1.994 0 0 1 2 21.006V8.994A2 2 0 0 1 4.004 7h20.992C26.11 7 27 7.893 27 8.994v6.213A5.5 5.5 0 1 1 20.6 23zM3.315 8.274A1.006 1.006 0 0 0 3 9.007v11.986c0 .29.12.551.313.735L11.05 15 3.315 8.274zM14.5 16.7l10-8.7h-20l10 8.7zm11 8.3a4.5 4.5 0 1 0 0-9 4.5 4.5 0 0 0 0 9z" fill="#929292" fill-rule="evenodd"/></svg>
